src/icons/asset/musique.svg

<svg width="24" height="24" xmlns="http://www.w3.org/2000/svg" fill-rule="evenodd" clip-rule="evenodd"><path d="M2.5 19.245l.816 1.506 1.684.31-1.18 1.241.225 1.698-1.545-.739-1.545.739.225-1.698-1.18-1.241 1.684-.31.816-1.506zm19.293-3.851l-.917-.326-1.946 5.471c-1.44-.856-3.521-.263-3.98 1.028-.386 1.085.276 1.953 1.211 2.286 1.11.395 2.609.035 3.183-1.574l1.471-4.135c1.42 1.766 1.881 1.979 1.617 3.305.684-.622 1.002-1.098 1.204-1.664.615-1.729-2.338-3-1.843-4.391zm-7.61-12.343l-8.13 5.493 2.849 7.266c-1.789.323-2.981 2.243-2.438 3.627.467 1.191 1.635 1.43 2.646 1.033 1.201-.47 2.18-1.837 1.502-3.571l-2.381-6.074 6.149-3.992 1.885 4.806c-1.786.323-2.98 2.238-2.439 3.618.468 1.195 1.662 1.427 2.668 1.032 1.192-.467 2.16-1.828 1.483-3.562l-3.794-9.676zm-11.683 8.005l-2.5 2.5 2.5 2.5 2.5-2.5-2.5-2.5zm18.346-8.056l1.029 1.9 2.125.392-1.489 1.566.284 2.142-1.949-.932-1.95.932.284-2.142-1.489-1.566 2.125-.392 1.03-1.9zm-12.193-2.381l-.863-.619-3.284 4.575c-1.059-1.622-3.104-2.051-4.158-.582-.651.907-.341 2.187.538 2.818 1.046.751 2.666.91 3.634-.435l4.133-5.757z"/></svg>

<svg width="24" height="24" xmlns="http://www.w3.org/2000/svg" fill-rule="evenodd" clip-rule="evenodd"><path d="M2.5 19.245l.816 1.506 1.684.31-1.18 1.241L4.045 24 2.5 23.261.955 24l.225-1.698L0 21.061l1.684-.31.816-1.506zm19.293-3.851l-.917-.326-1.946 5.471c-1.44-.856-3.521-.263-3.98 1.028-.386 1.085.276 1.953 1.211 2.286 1.11.395 2.609.035 3.183-1.574l1.471-4.135c1.42 1.766 1.881 1.979 1.617 3.305.684-.622 1.002-1.098 1.204-1.664.615-1.729-2.338-3-1.843-4.391zm-7.61-12.343l-8.13 5.493 2.849 7.266c-1.789.323-2.981 2.243-2.438 3.627.467 1.191 1.635 1.43 2.646 1.033 1.201-.47 2.18-1.837 1.502-3.571l-2.381-6.074 6.149-3.992 1.885 4.806c-1.786.323-2.98 2.238-2.439 3.618.468 1.195 1.662 1.427 2.668 1.032 1.192-.467 2.16-1.828 1.483-3.562l-3.794-9.676zM2.5 11.056l-2.5 2.5 2.5 2.5 2.5-2.5-2.5-2.5zM20.846 3l1.029 1.9L24 5.292l-1.489 1.566L22.795 9l-1.949-.932-1.95.932.284-2.142-1.489-1.566 2.125-.392 1.03-1.9zM8.653.619L7.79 0 4.506 4.575C3.447 2.953 1.402 2.524.348 3.993-.303 4.9.007 6.18.886 6.811c1.046.751 2.666.91 3.634-.435L8.653.619z"/></svg>
